public/images/logo.svg

<?xml version="1.0" encoding="UTF-8"?>
<svg width="157px" height="29px" viewBox="0 0 157 29" version="1.1" xmlns="http://www.w3.org/2000/svg" xmlns:xlink="http://www.w3.org/1999/xlink">
    <title>logo</title>
    <g id="Page-1" stroke="none" stroke-width="1" fill="none" fill-rule="evenodd">
        <g id="Group">
            <rect id="Rectangle" fill="#8330FF" fill-rule="nonzero" x="39" y="0" width="118" height="29"></rect>
            <rect id="Rectangle" fill="#46ECA1" fill-rule="nonzero" transform="translate(19.500000, 14.500000) scale(-1, 1) translate(-19.500000, -14.500000) " x="0" y="0" width="39" height="29"></rect>
            <g id="Group-9" transform="translate(3.000000, 3.000000)" fill="#8330FF" fill-rule="nonzero">
                <g id="Group">
                    <circle id="Oval" cx="1.5" cy="1.5" r="1.5"></circle>
                    <circle id="Oval" cx="11.5" cy="11.5" r="1.5"></circle>
                    <circle id="Oval" cx="21.5" cy="21.5" r="1.5"></circle>
                    <circle id="Oval" cx="31.5" cy="11.5" r="1.5"></circle>
                </g>
            </g>
            <path d="M34.5,3 C35.3284271,3 36,3.67157288 36,4.5 C36,5.32842712 35.3284271,6 34.5,6 C34.2929907,6 34.0957755,5.95806619 33.9163857,5.8822297 L25.8571144,13.8602337 C25.948755,14.0542873 26,14.2711592 26,14.5 C26,15.3284271 25.3284271,16 24.5,16 C23.6715729,16 23,15.3284271 23,14.5 C23,14.2734983 23.0502028,14.058722 23.1400881,13.8661914 L15.0343541,5.90202757 C14.8683587,5.96533001 14.6882282,6 14.5,6 C14.3095399,6 14.1273705,5.96450292 13.9597469,5.89976364 L5.829789,13.8053197 C5.93850941,14.0130107 6,14.2493244 6,14.5 C6,15.3284271 5.32842712,16 4.5,16 C3.67157288,16 3,15.3284271 3,14.5 C3,13.6715729 3.67157288,13 4.5,13 C4.7116875,13 4.91313315,13.0438505 5.09574895,13.1229636 L13.1974561,5.24441079 C13.0718189,5.02504851 13,4.77091136 13,4.5 C13,3.67157288 13.6715729,3 14.5,3 C15.3284271,3 16,3.67157288 16,4.5 C16,4.77338921 15.9268613,5.02969596 15.799083,5.25042113 L23.8424468,13.1514295 C24.0409981,13.054436 24.2641419,13 24.5,13 C24.7339088,13 24.9553128,13.0535399 25.1526254,13.1490334 L33.1761681,5.20594334 C33.0637394,4.99554951 33,4.75521833 33,4.5 C33,3.67157288 33.6715729,3 34.5,3 Z" id="Combined-Shape" fill="#F9FCFD" fill-rule="nonzero"></path>
            <circle id="Oval" fill="#0000C2" fill-rule="nonzero" cx="4.5" cy="24.5" r="1.5"></circle>
            <circle id="Oval" fill="#0000C2" fill-rule="nonzero" cx="14.5" cy="24.5" r="1.5"></circle>
            <circle id="Oval" fill="#0000C2" fill-rule="nonzero" cx="24.5" cy="4.5" r="1.5"></circle>
            <circle id="Oval" fill="#0000C2" fill-rule="nonzero" cx="34.5" cy="24.5" r="1.5"></circle>
            <path d="M53.104,20.708 C54.468,20.708 55.5533333,20.4073333 56.36,19.806 C57.1666667,19.2046667 57.57,18.3613333 57.57,17.276 C57.57,16.5426667 57.383,15.956 57.009,15.516 C56.635,15.076 56.1253333,14.7386667 55.48,14.504 C54.8346667,14.2693333 54.1233333,14.086 53.346,13.954 L53.346,13.954 L52.576,13.822 C51.9893333,13.7193333 51.5236667,13.5653333 51.179,13.36 C50.8343333,13.1546667 50.662,12.832 50.662,12.392 C50.662,11.9813333 50.838,11.6623333 51.19,11.435 C51.542,11.2076667 52.026,11.094 52.642,11.094 C53.2726667,11.094 53.8006667,11.2296667 54.226,11.501 C54.6513333,11.7723333 54.93,12.238 55.062,12.898 L55.062,12.898 L57.174,12.304 C56.9393333,11.3653333 56.4296667,10.621 55.645,10.071 C54.8603333,9.521 53.8593333,9.246 52.642,9.246 C51.3806667,9.246 50.3686667,9.52833333 49.606,10.093 C48.8433333,10.6576667 48.462,11.4533333 48.462,12.48 C48.462,13.1693333 48.638,13.734 48.99,14.174 C49.342,14.614 49.8186667,14.9586667 50.42,15.208 C51.0213333,15.4573333 51.6886667,15.648 52.422,15.78 L52.422,15.78 L53.17,15.912 C53.8886667,16.044 54.4313333,16.2126667 54.798,16.418 C55.1646667,16.6233333 55.348,16.946 55.348,17.386 C55.348,17.826 55.1536667,18.1853333 54.765,18.464 C54.3763333,18.7426667 53.8226667,18.882 53.104,18.882 C52.62,18.882 52.169,18.8086667 51.751,18.662 C51.333,18.5153333 50.9846667,18.266 50.706,17.914 C50.4273333,17.562 50.2293333,17.0853333 50.112,16.484 L50.112,16.484 L48,16.99 C48.2053333,18.2366667 48.7626667,19.168 49.672,19.784 C50.5813333,20.4 51.7253333,20.708 53.104,20.708 Z M67.2807979,20.4 L67.2807979,18.486 L65.0147979,18.486 C64.6041312,18.486 64.3987979,18.266 64.3987979,17.826 L64.3987979,17.826 L64.3987979,11.468 L67.6327979,11.468 L67.6327979,9.554 L64.3987979,9.554 L64.3987979,5.968 L62.1327979,5.968 L62.1327979,9.554 L59.1407979,9.554 L59.1407979,11.468 L62.1327979,11.468 L62.1327979,18.222 C62.1327979,18.882 62.3271312,19.41 62.7157979,19.806 C63.1044645,20.202 63.6287979,20.4 64.2887979,20.4 L64.2887979,20.4 L67.2807979,20.4 Z M73.6629946,20.708 C74.4109946,20.708 75.012328,20.6016667 75.4669946,20.389 C75.9216613,20.1763333 76.266328,19.9233333 76.5009946,19.63 C76.7356613,19.3366667 76.9116613,19.08 77.0289946,18.86 L77.0289946,18.86 L77.3589946,18.86 L77.3589946,18.926 C77.3589946,19.3806667 77.520328,19.74 77.8429946,20.004 C78.1656613,20.268 78.5836613,20.4 79.0969946,20.4 L79.0969946,20.4 L80.7909946,20.4 L80.7909946,18.508 L79.8669946,18.508 C79.456328,18.508 79.2509946,18.288 79.2509946,17.848 L79.2509946,17.848 L79.2509946,13.382 C79.2509946,12.062 78.8476613,11.0426667 78.0409946,10.324 C77.234328,9.60533333 76.1269946,9.246 74.7189946,9.246 C73.8096613,9.246 73.032328,9.39266667 72.3869946,9.686 C71.7416613,9.97933333 71.2246613,10.3643333 70.8359946,10.841 C70.447328,11.3176667 70.1649946,11.8493333 69.9889946,12.436 L69.9889946,12.436 L72.1009946,13.118 C72.2329946,12.5313333 72.504328,12.0546667 72.9149946,11.688 C73.3256613,11.3213333 73.9196613,11.138 74.6969946,11.138 C75.4889946,11.138 76.0756613,11.3286667 76.4569946,11.71 C76.838328,12.0913333 77.0289946,12.5973333 77.0289946,13.228 L77.0289946,13.228 L77.0289946,13.932 L73.7289946,13.932 C72.9369946,13.932 72.229328,14.0566667 71.6059946,14.306 C70.9826613,14.5553333 70.491328,14.9256667 70.1319946,15.417 C69.7726613,15.9083333 69.5929946,16.528 69.5929946,17.276 C69.5929946,18.0093333 69.7726613,18.6326667 70.1319946,19.146 C70.491328,19.6593333 70.975328,20.048 71.5839946,20.312 C72.1926613,20.576 72.8856613,20.708 73.6629946,20.708 Z M73.9929946,18.838 C73.3329946,18.838 72.812328,18.6913333 72.4309946,18.398 C72.0496613,18.1046667 71.8589946,17.7086667 71.8589946,17.21 C71.8589946,16.7113333 72.042328,16.3336667 72.4089946,16.077 C72.7756613,15.8203333 73.2596613,15.692 73.8609946,15.692 L73.8609946,15.692 L77.0289946,15.692 L77.0289946,15.912 C77.0289946,16.8213333 76.750328,17.5363333 76.1929946,18.057 C75.6356613,18.5776667 74.902328,18.838 73.9929946,18.838 Z M87.4701968,20.708 C88.5261968,20.708 89.3365301,20.5173333 89.9011968,20.136 C90.4658634,19.7546667 90.8875301,19.3293333 91.1661968,18.86 L91.1661968,18.86 L91.5181968,18.86 L91.5181968,20.4 L93.7401968,20.4 L93.7401968,5 L91.4741968,5 L91.4741968,11.028 L91.1221968,11.028 C90.9608634,10.7346667 90.7261968,10.4523333 90.4181968,10.181 C90.1101968,9.90966667 89.7178634,9.686 89.2411968,9.51 C88.7645301,9.334 88.1741968,9.246 87.4701968,9.246 C86.5608634,9.246 85.7248634,9.466 84.9621968,9.906 C84.1995301,10.346 83.5908634,10.984 83.1361968,11.82 C82.6815301,12.656 82.4541968,13.6533333 82.4541968,14.812 L82.4541968,14.812 L82.4541968,15.142 C82.4541968,16.3153333 82.6851968,17.3163333 83.1471968,18.145 C83.6091968,18.9736667 84.2215301,19.608 84.9841968,20.048 C85.7468634,20.488 86.5755301,20.708 87.4701968,20.708 Z M88.1081968,18.728 C87.1401968,18.728 86.3371968,18.4126667 85.6991968,17.782 C85.0611968,17.1513333 84.7421968,16.2493333 84.7421968,15.076 L84.7421968,15.076 L84.7421968,14.878 C84.7421968,13.7193333 85.0611968,12.8246667 85.6991968,12.194 C86.3371968,11.5633333 87.1401968,11.248 88.1081968,11.248 C89.1055301,11.248 89.9195301,11.5633333 90.5501968,12.194 C91.1808634,12.8246667 91.4961968,13.7193333 91.4961968,14.878 L91.4961968,14.878 L91.4961968,15.076 C91.4961968,16.2493333 91.1771968,17.1513333 90.5391968,17.782 C89.9011968,18.4126667 89.0908634,18.728 88.1081968,18.728 Z M104.141792,20.4 L104.141792,18.486 L101.875792,18.486 C101.465126,18.486 101.259792,18.266 101.259792,17.826 L101.259792,17.826 L101.259792,11.468 L104.493792,11.468 L104.493792,9.554 L101.259792,9.554 L101.259792,5.968 L98.9937925,5.968 L98.9937925,9.554 L96.0017925,9.554 L96.0017925,11.468 L98.9937925,11.468 L98.9937925,18.222 C98.9937925,18.882 99.1881258,19.41 99.5767925,19.806 C99.9654591,20.202 100.489792,20.4 101.149792,20.4 L101.149792,20.4 L104.141792,20.4 Z M109.423989,24.8 L109.423989,18.926 L109.775989,18.926 C109.951989,19.2193333 110.186656,19.5016667 110.479989,19.773 C110.773323,20.0443333 111.161989,20.268 111.645989,20.444 C112.129989,20.62 112.723989,20.708 113.427989,20.708 C114.337323,20.708 115.173323,20.488 115.935989,20.048 C116.698656,19.608 117.307323,18.9736667 117.761989,18.145 C118.216656,17.3163333 118.443989,16.3153333 118.443989,15.142 L118.443989,15.142 L118.443989,14.812 C118.443989,13.6386667 118.212989,12.6376667 117.750989,11.809 C117.288989,10.9803333 116.680323,10.346 115.924989,9.906 C115.169656,9.466 114.337323,9.246 113.427989,9.246 C112.371989,9.246 111.561656,9.43666667 110.996989,9.818 C110.432323,10.1993333 110.010656,10.632 109.731989,11.116 L109.731989,11.116 L109.379989,11.116 L109.379989,9.554 L107.157989,9.554 L107.157989,24.8 L109.423989,24.8 Z M112.767989,18.728 C111.799989,18.728 110.996989,18.4126667 110.358989,17.782 C109.720989,17.1513333 109.401989,16.2493333 109.401989,15.076 L109.401989,15.076 L109.401989,14.878 C109.401989,13.7193333 109.720989,12.8246667 110.358989,12.194 C110.996989,11.5633333 111.799989,11.248 112.767989,11.248 C113.750656,11.248 114.560989,11.5633333 115.198989,12.194 C115.836989,12.8246667 116.155989,13.7193333 116.155989,14.878 L116.155989,14.878 L116.155989,15.076 C116.155989,16.2493333 115.840656,17.1513333 115.209989,17.782 C114.579323,18.4126667 113.765323,18.728 112.767989,18.728 Z M125.413585,20.598 C126.440252,20.598 127.217585,20.4036667 127.745585,20.015 C128.273585,19.6263333 128.640252,19.212 128.845585,18.772 L128.845585,18.772 L129.197585,18.772 L129.197585,20.4 L131.419585,20.4 L131.419585,9.554 L129.153585,9.554 L129.153585,15.032 C129.153585,16.2053333 128.871252,17.1036667 128.306585,17.727 C127.741918,18.3503333 126.997585,18.662 126.073585,18.662 C125.237585,18.662 124.584918,18.4383333 124.115585,17.991 C123.646252,17.5436667 123.411585,16.8506667 123.411585,15.912 L123.411585,15.912 L123.411585,9.554 L121.145585,9.554 L121.145585,16.066 C121.145585,17.0046667 121.328918,17.8113333 121.695585,18.486 C122.062252,19.1606667 122.568252,19.6813333 123.213585,20.048 C123.858918,20.4146667 124.592252,20.598 125.413585,20.598 Z M137.035088,20.4 L137.035088,5 L134.769088,5 L134.769088,20.4 L137.035088,20.4 Z M144.834104,20.708 C146.198104,20.708 147.283437,20.4073333 148.090104,19.806 C148.89677,19.2046667 149.300104,18.3613333 149.300104,17.276 C149.300104,16.5426667 149.113104,15.956 148.739104,15.516 C148.365104,15.076 147.855437,14.7386667 147.210104,14.504 C146.56477,14.2693333 145.853437,14.086 145.076104,13.954 L145.076104,13.954 L144.306104,13.822 C143.719437,13.7193333 143.25377,13.5653333 142.909104,13.36 C142.564437,13.1546667 142.392104,12.832 142.392104,12.392 C142.392104,11.9813333 142.568104,11.6623333 142.920104,11.435 C143.272104,11.2076667 143.756104,11.094 144.372104,11.094 C145.00277,11.094 145.53077,11.2296667 145.956104,11.501 C146.381437,11.7723333 146.660104,12.238 146.792104,12.898 L146.792104,12.898 L148.904104,12.304 C148.669437,11.3653333 148.15977,10.621 147.375104,10.071 C146.590437,9.521 145.589437,9.246 144.372104,9.246 C143.11077,9.246 142.09877,9.52833333 141.336104,10.093 C140.573437,10.6576667 140.192104,11.4533333 140.192104,12.48 C140.192104,13.1693333 140.368104,13.734 140.720104,14.174 C141.072104,14.614 141.54877,14.9586667 142.150104,15.208 C142.751437,15.4573333 143.41877,15.648 144.152104,15.78 L144.152104,15.78 L144.900104,15.912 C145.61877,16.044 146.161437,16.2126667 146.528104,16.418 C146.89477,16.6233333 147.078104,16.946 147.078104,17.386 C147.078104,17.826 146.88377,18.1853333 146.495104,18.464 C146.106437,18.7426667 145.55277,18.882 144.834104,18.882 C144.350104,18.882 143.899104,18.8086667 143.481104,18.662 C143.063104,18.5153333 142.71477,18.266 142.436104,17.914 C142.157437,17.562 141.959437,17.0853333 141.842104,16.484 L141.842104,16.484 L139.730104,16.99 C139.935437,18.2366667 140.49277,19.168 141.402104,19.784 C142.311437,20.4 143.455437,20.708 144.834104,20.708 Z" id="stadtpuls" fill="#F9FCFD" fill-rule="nonzero"></path>
            <polyline id="Path-5" stroke="#0000C2" stroke-linecap="round" stroke-linejoin="round" transform="translate(19.500000, 14.500000) scale(-1, 1) translate(-19.500000, -14.500000) " points="4.5 24.4 14.5 4.5 24.5 24.5 34.5 24.4"></polyline>
        </g>
    </g>
</svg>

<svg width="157" height="29" xmlns="http://www.w3.org/2000/svg"><g fill="none" fill-rule="evenodd"><path fill="#8330FF" fill-rule="nonzero" d="M39 0h118v29H39z"/><path fill="#46ECA1" fill-rule="nonzero" d="M39 0H0v29h39z"/><g transform="translate(3 3)" fill="#8330FF" fill-rule="nonzero"><circle cx="1.5" cy="1.5" r="1.5"/><circle cx="11.5" cy="11.5" r="1.5"/><circle cx="21.5" cy="21.5" r="1.5"/><circle cx="31.5" cy="11.5" r="1.5"/></g><path d="M34.5 3a1.5 1.5 0 1 1-.584 2.882l-8.059 7.978a1.5 1.5 0 1 1-2.717.006l-8.106-7.964A1.497 1.497 0 0 1 13.96 5.9l-8.13 7.905a1.5 1.5 0 1 1-.734-.682l8.101-7.879a1.5 1.5 0 1 1 2.602.006l8.043 7.901a1.494 1.494 0 0 1 1.31-.002l8.024-7.943A1.5 1.5 0 0 1 34.5 3Z" fill="#F9FCFD" fill-rule="nonzero"/><circle fill="#0000C2" fill-rule="nonzero" cx="4.5" cy="24.5" r="1.5"/><circle fill="#0000C2" fill-rule="nonzero" cx="14.5" cy="24.5" r="1.5"/><circle fill="#0000C2" fill-rule="nonzero" cx="24.5" cy="4.5" r="1.5"/><circle fill="#0000C2" fill-rule="nonzero" cx="34.5" cy="24.5" r="1.5"/><path d="M53.104 20.708c1.364 0 2.45-.3 3.256-.902.807-.601 1.21-1.445 1.21-2.53 0-.733-.187-1.32-.561-1.76-.374-.44-.884-.777-1.529-1.012a12.24 12.24 0 0 0-2.134-.55l-.77-.132c-.587-.103-1.052-.257-1.397-.462-.345-.205-.517-.528-.517-.968 0-.41.176-.73.528-.957.352-.227.836-.341 1.452-.341.63 0 1.159.136 1.584.407.425.271.704.737.836 1.397l2.112-.594a3.752 3.752 0 0 0-1.529-2.233c-.785-.55-1.786-.825-3.003-.825-1.261 0-2.273.282-3.036.847-.763.565-1.144 1.36-1.144 2.387 0 .69.176 1.254.528 1.694.352.44.829.785 1.43 1.034a9.71 9.71 0 0 0 2.002.572l.748.132c.719.132 1.261.3 1.628.506.367.205.55.528.55.968 0 .44-.194.8-.583 1.078-.389.279-.942.418-1.661.418-.484 0-.935-.073-1.353-.22a2.266 2.266 0 0 1-1.045-.748c-.279-.352-.477-.829-.594-1.43L48 16.99c.205 1.247.763 2.178 1.672 2.794.91.616 2.053.924 3.432.924Zm14.177-.308v-1.914h-2.266c-.41 0-.616-.22-.616-.66v-6.358h3.234V9.554h-3.234V5.968h-2.266v3.586H59.14v1.914h2.992v6.754c0 .66.194 1.188.583 1.584.388.396.913.594 1.573.594h2.992Zm6.382.308c.748 0 1.35-.106 1.804-.319.455-.213.8-.466 1.034-.759.235-.293.41-.55.528-.77h.33v.066c0 .455.161.814.484 1.078.323.264.74.396 1.254.396h1.694v-1.892h-.924c-.41 0-.616-.22-.616-.66v-4.466c0-1.32-.403-2.34-1.21-3.058-.807-.719-1.914-1.078-3.322-1.078-.91 0-1.687.147-2.332.44-.645.293-1.162.678-1.551 1.155a4.586 4.586 0 0 0-.847 1.595l2.112.682c.132-.587.403-1.063.814-1.43.41-.367 1.005-.55 1.782-.55.792 0 1.379.19 1.76.572.381.381.572.887.572 1.518v.704h-3.3c-.792 0-1.5.125-2.123.374-.623.25-1.115.62-1.474 1.111-.36.491-.539 1.111-.539 1.859 0 .733.18 1.357.539 1.87.36.513.843.902 1.452 1.166.609.264 1.302.396 2.079.396Zm.33-1.87c-.66 0-1.18-.147-1.562-.44-.381-.293-.572-.69-.572-1.188 0-.499.183-.876.55-1.133.367-.257.85-.385 1.452-.385h3.168v.22c0 .91-.279 1.624-.836 2.145-.557.52-1.29.781-2.2.781Zm13.477 1.87c1.056 0 1.867-.19 2.431-.572.565-.381.987-.807 1.265-1.276h.352v1.54h2.222V5h-2.266v6.028h-.352a3.203 3.203 0 0 0-.704-.847c-.308-.271-.7-.495-1.177-.671-.476-.176-1.067-.264-1.77-.264-.91 0-1.746.22-2.509.66-.762.44-1.371 1.078-1.826 1.914-.454.836-.682 1.833-.682 2.992v.33c0 1.173.231 2.174.693 3.003.462.829 1.075 1.463 1.837 1.903.763.44 1.592.66 2.486.66Zm.638-1.98c-.968 0-1.77-.315-2.409-.946-.638-.63-.957-1.533-.957-2.706v-.198c0-1.159.32-2.053.957-2.684.638-.63 1.441-.946 2.41-.946.997 0 1.81.315 2.441.946.63.63.946 1.525.946 2.684v.198c0 1.173-.319 2.075-.957 2.706-.638.63-1.448.946-2.43.946Zm16.034 1.672v-1.914h-2.266c-.41 0-.616-.22-.616-.66v-6.358h3.234V9.554h-3.234V5.968h-2.266v3.586h-2.992v1.914h2.992v6.754c0 .66.194 1.188.583 1.584.388.396.913.594 1.573.594h2.992Zm5.282 4.4v-5.874h.352c.176.293.41.576.704.847.293.271.682.495 1.166.671.484.176 1.078.264 1.782.264.91 0 1.745-.22 2.508-.66.763-.44 1.371-1.074 1.826-1.903.455-.829.682-1.83.682-3.003v-.33c0-1.173-.231-2.174-.693-3.003-.462-.829-1.07-1.463-1.826-1.903a4.871 4.871 0 0 0-2.497-.66c-1.056 0-1.866.19-2.431.572-.565.381-.986.814-1.265 1.298h-.352V9.554h-2.222V24.8h2.266Zm3.344-6.072c-.968 0-1.771-.315-2.409-.946-.638-.63-.957-1.533-.957-2.706v-.198c0-1.159.319-2.053.957-2.684.638-.63 1.441-.946 2.409-.946.983 0 1.793.315 2.431.946.638.63.957 1.525.957 2.684v.198c0 1.173-.315 2.075-.946 2.706-.63.63-1.445.946-2.442.946Zm12.646 1.87c1.026 0 1.804-.194 2.332-.583.528-.389.894-.803 1.1-1.243h.352V20.4h2.222V9.554h-2.266v5.478c0 1.173-.283 2.072-.847 2.695-.565.623-1.31.935-2.233.935-.836 0-1.49-.224-1.958-.671-.47-.447-.704-1.14-.704-2.079V9.554h-2.266v6.512c0 .939.183 1.745.55 2.42a3.893 3.893 0 0 0 1.518 1.562c.645.367 1.378.55 2.2.55Zm11.621-.198V5h-2.266v15.4h2.266Zm7.8.308c1.363 0 2.448-.3 3.255-.902.807-.601 1.21-1.445 1.21-2.53 0-.733-.187-1.32-.56-1.76-.375-.44-.885-.777-1.53-1.012a12.24 12.24 0 0 0-2.134-.55l-.77-.132c-.587-.103-1.052-.257-1.397-.462-.345-.205-.517-.528-.517-.968 0-.41.176-.73.528-.957.352-.227.836-.341 1.452-.341.63 0 1.159.136 1.584.407.425.271.704.737.836 1.397l2.112-.594a3.752 3.752 0 0 0-1.529-2.233c-.785-.55-1.786-.825-3.003-.825-1.261 0-2.273.282-3.036.847-.763.565-1.144 1.36-1.144 2.387 0 .69.176 1.254.528 1.694.352.44.829.785 1.43 1.034a9.71 9.71 0 0 0 2.002.572l.748.132c.719.132 1.261.3 1.628.506.367.205.55.528.55.968 0 .44-.194.8-.583 1.078-.389.279-.942.418-1.66.418-.485 0-.936-.073-1.354-.22a2.266 2.266 0 0 1-1.045-.748c-.279-.352-.477-.829-.594-1.43l-2.112.506c.205 1.247.763 2.178 1.672 2.794.91.616 2.053.924 3.432.924Z" fill="#F9FCFD" fill-rule="nonzero"/><path stroke="#0000C2" stroke-linecap="round" stroke-linejoin="round" d="m34.5 24.4-10-19.9-10 20-10-.1"/></g></svg>
